X:71
T:Highland Wedding. JJo8.071
%%VWML:JohnsonVol8-2184-p36-0
F:http://www.vwml.org/record/JohnsonVol8/2184/p36
Z:Transcribed by Simon Furey and Lewis Jones
Z:vmp.Simon Wilson 2013 www.village-music-project.org.uk
Z:Dance added by John Chambers 2017
M:C|
L:1/4
%Q:1/1=80
K:G
|:\
Bgge | dBAG | "^tr"E>DEG | "^tr"E>DEG |\
Bgge | dBAG | "^tr"E>DEF | G2G,2 :|\
|:\
gege | dedB | gege | d2B2 |
geaf | gede | dBAG | A2DA |\
Bgge | dBAG | "^tr"E>DEG | "^tr"E>DEG |\
Bgge | dBAG | "^tr"F>DEF | G2G,2 :|
W: First Cu. foot it and change Places.
W:the same back again Cross over two Cu.
W:lead to the top and cast off hands 6
W:round and Right and Left.
W:
T:Trip to the Forest. JJo8.072
B:J.Johnson Choice Collection Vol 8 1758
Z:vmp.Simon Wilson 2013 www.village-music-project.org.uk
Z:Dance added by John Chambers 2017
M:6/8
L:1/8
%Q:3/8=120
K:F
|:\
(.c.c.c) cfc | cBA cBA | (.d.d.d) dfd | dcB AGF |\
(.c.c.c) cfc | (.d.d.d) dfd | cAf cBA | (.G.G.G) G3 :|
|:\
(.G.G.G) GEG | Bdc BAG | (.A.A.A) AFA | cBA [C2G2]A/B/ |\
(.c.c.c) cfc | (.d.d.d) dbg | agf ece | f(.F.F) F3 :|
W: First Man turn Right hands single
W:with the 2d then Left with his Partner,
W:his Partner the same. cross over
W:and turn and Right and Left.
W:
